komnata/build/images/icons/fb.svg

<svg width="24" height="24" viewBox="0 0 24 24" fill="none" xmlns="http://www.w3.org/2000/svg">
<ellipse cx="13" cy="11.142" rx="8" ry="8.23523" fill="white"/>
<path d="M12 0.893066C5.88141 0.893066 0.92157 5.69841 0.92157 11.6264C0.92157 17.5544 5.88141 22.3597 12 22.3597C18.1185 22.3597 23.0784 17.5544 23.0784 11.6264C23.0784 5.69841 18.1185 0.893066 12 0.893066ZM15.6328 12.2244C15.1879 12.2172 14.7811 12.2298 14.2639 12.2082C14.1799 12.2044 12.8328 12.224 12.8368 12.2477C12.9348 12.8281 12.7941 13.4447 12.8025 14.0316C12.8076 14.3737 12.9112 17.4681 12.8635 18.6095L10.194 18.6333C10.1829 17.6613 10.2319 16.6617 10.1884 15.3798C10.1796 15.1163 10.1707 12.3428 10.139 12.1968C10.139 12.1968 8.95917 12.2049 8.40765 12.2082C8.40765 12.2082 8.40021 11.1846 8.40021 10.8384C8.40021 10.4982 8.40021 10.1585 8.40021 9.81827C8.40021 9.81827 9.77733 9.74433 10.1726 9.71108C10.1726 9.71108 10.2129 8.41267 10.2676 7.99203C10.3308 7.51163 10.337 7.02612 10.6281 6.60107C11.1616 5.82304 11.6882 5.13733 12.6691 4.93062C13.0401 4.85202 15.4869 4.38604 15.5776 4.76948L15.522 7.07798C14.8567 7.07798 14.0594 7.01264 13.3804 7.50117C13.0024 7.77369 12.898 8.00063 12.8599 8.44894C12.8371 8.7096 12.8318 9.76456 12.8318 9.76456C13.1904 9.81409 13.721 9.79223 14.1064 9.76456C14.5418 9.73317 15.6595 9.84501 15.6595 9.84501C15.659 10.5433 15.6302 12.1554 15.6328 12.2244Z" fill="#3A5897"/>
</svg>

<svg width="24" height="24" fill="none" xmlns="http://www.w3.org/2000/svg"><ellipse cx="13" cy="11.142" rx="8" ry="8.235" fill="#fff"/><path d="M12 .893C5.881.893.922 5.698.922 11.626.922 17.554 5.882 22.36 12 22.36c6.119 0 11.078-4.806 11.078-10.734S18.118.893 12 .893Zm3.633 11.331c-.445-.007-.852.006-1.37-.016-.083-.004-1.43.016-1.426.04.098.58-.043 1.197-.034 1.784.005.342.108 3.436.06 4.578l-2.669.023c-.011-.972.038-1.971-.006-3.253-.008-.264-.017-3.037-.049-3.183l-1.731.011s-.008-1.023-.008-1.37v-1.02s1.377-.074 1.773-.107c0 0 .04-1.298.095-1.719.063-.48.069-.966.36-1.39.534-.779 1.06-1.465 2.041-1.671.371-.079 2.818-.545 2.909-.162l-.056 2.309c-.665 0-1.463-.065-2.142.423-.378.273-.482.5-.52.948-.023.26-.028 1.316-.028 1.316.358.05.889.027 1.274 0 .436-.032 1.553.08 1.553.08 0 .698-.029 2.31-.026 2.38Z" fill="#3A5897"/></svg>
